X: 491
T:The Cotton Grass Flowers
C:Traditional
M:9/8
L:1/8
Q:1/8=240
S:Brian Finnegan August 2001
N:Posted to the woodenflute mailing list February 2002
N:Posted by Richard Moon
Z:Josephine Smith
K:G
BGG AGE GED | E/F/GD EFG A2c | BGG AGE GED | E/F/GD EAB G3 |
BGG AGE GED | E/F/GD EFG A2c | BGG AGE GED | E/F/GD EAB G3 |
Bdd ded BAG | Bdd edB A3 | Bdd ded BAG | AGE DEF G3 |
Bdd ded BAG | Bdd edB A3 | Bdd ded BAG | AGE DEF G3 |

